**kern
*I"钢琴, MIDI
*clefG2
*k[f#c#]
*M4/4
*MM80
=1
1r
=2
1r
=3
1r
=4
1r
=5
1r
=6
1r
=7
1r
=8
1r
=9
1r
=10
1r
=11
4.F#
16DLL
[16EJJ
4.E]
16r
16AA
=12
4.F#
16DLL
[16EJJ
8E]
8r
8DL
16EL
16EJJ
=13
8F#L
8d
8c#
8AJ
16F#LL
16EJ
8DJ
8r
16BBLL
16DJJ
=14
8EL
8DJ
16ELL
16AJ
[8F#J
4F#]
8r
16F#LL
16GJJ
=15
4.A
16BLL
[16AJJ
4A]
8F#L
8GJ
=16
8AL
8dJ
8c#L
16AL
[16F#JJ
4F#]
8r
16DLL
16EJJ
=17
8F#L
8GJ
8BBL
16DL
16EJJ
8r
8BBL
8BB
8DJ
=18
4D
8C#L
16BBL
[16C#JJ
4.C#]
8r
=19
4.F#
16DLL
[16EJJ
4.E]
16r
16AA
=20
4.F#
16DLL
[16EJJ
8E]
8r
8DL
16EL
16EJJ
=21
8F#L
8d
8c#
8AJ
16F#LL
16EJ
8DJ
8r
16BBLL
16DJJ
=22
8EL
8DJ
16ELL
16AJ
[8F#J
4F#]
8r
16F#LL
16GJJ
=23
4.A
16BLL
[16AJJ
4A]
8F#L
8GJ
=24
8AL
8dJ
8c#L
16AL
[16F#JJ
4F#]
8r
16DLL
16EJJ
=25
8F#L
8G
8BB
8DJ
4D
8C#L
16DL
[16DJJ
=26
2.D]
4r
=27
8EL
8EJ
8EL
16BL
16BJJ
8AL
8A
8B
8c#J
=28
8dL
8AJ
16ALL
16F#J
[8BJ
4B]
8r
8D
=29
8EL
8EJ
8EL
16BL
16BJJ
8BL
8F#
8E
8DJ
=30
8DL
8EJ
16F#LL
16GJ
[8AJ
8AL]
8F#J
16EKL
8.D'J
=31
8EL
8E
8E
8BJ
8AL
8A
8B
8c#J
=32
8dL
8A
8A
[8BJ
4B]
8r
16ALL
16BJJ
=33
8dL
8BJ
8dL
16BL
[16dJJ
16dKL]
[8.BJ
16BLL]
16B
16B
16dJJ
=34
8c#L
8c#J
16BLL
16BJ
8BJ
8c#L
8dJ
[4e
=35
2.e]
8r
16F#LL
16GJJ
=36
8AL
8f#
8e
8dJ
8A
4A
8A
=37
8BL
8f#J
8gL
16f#L
16f#JJ
8r
8eL
8d
8c#J
=38
16dLL
16dJ
8eJ
8f#L
[8eJ
16eLL]
16d
16d
16dJJ
8BL
8dJ
=39
8eL
16dL
16eJJ
16dLL
16dJ
[8f#J
4f#]
8r
16f#LL
[16eJJ
=40
8eL]
16f#L
[16dJJ
16dLL]
16B
16B
[16dJJ
16dLL]
16B
16B
16BJJ
16dLL
16e
16d
16eJJ
=41
8aL
8f#J
16eLL
16e
16e
16f#JJ
16eKL
8d'
16dJk
16dLL
16d
16B
16dJJ
=42
8eL
8f#J
8gL
16f#L
16eJJ
8r
8d
16BKL
8d
16c#Jk
=43
8dL
8dJ
8c#L
16dL
[16eJJ
4e]
8r
16F#LL
16GJJ
=44
16ALL
16AJ
8f#J
8eL
8dJ
8A
4A
8A
=45
8BL
8f#J
8gL
16f#L
16f#JJ
8r
16eLL
16eJJ
16dLL
16d
16e
16eJJ
=46
8bL
16aL
16aJJ
16f#LL
16f#
16e
16dJJ
8eL
8f#J
8r
16ALL
[16aJJ
=47
8aL]
16gL
[16f#JJ
16f#LL]
16e
16e
[16dJJ
4d]
8r
16BLL
[16dJJ
=48
8dL]
16BL
[16dJJ
8dL]
16BL
[16dJJ
8dL]
16eL
[16gJJ
8gL]
16bL
[16aJJ
=49
8aL]
16f#L
[16f#JJ
16f#LL]
16eJ
8dJ
16r
16dLL
16d
16BJJ
16dLL
16e
16f#
[16eJJ
=50
16eLL]
16eJ
8eJ
8eL
16f#L
[16gJJ
8gL]
8f#
8B
8dJ
=51
8dL
16dL
16c#JJ
8c#L
16dL
16eJJ
16r
16ALL
16f#
16eJJ
16dLL
16dJ
[8dJ
=52
4d]
4r
2r
=53
1r
=54
1r
=55
1r
=56
2r
2f#
=57
8gL
8f#
8e
8f#J
8eL
16dL
[16dJJ
4d_
=58
4d]
16BLL
16c#
16d
16f#JJ
16f#LL
16e
16e
[16eJJ
16eKL]
[8.dJ
=59
8dL]
16BL
[16BJJ
16BKL]
8d
16dJk
8c#L
16dL
[16c#JJ
16c#LL]
16BJ
[8AJ
=60
4A]
8r
16ALL
[16eJJ
4e]
4d
=61
8c#L
16dL
[16eJJ
16eLL]
16eJ
8f#J
8dL
8dJ
8dL
16c#L
[16dJJ
=62
4d]
8r
16ALL
16BJJ
8dL
16c#L
[16dJJ
8dL]
16dL
16eJJ
=63
8f#L
16eL
[16dJJ
8dL]
8eJ
4f#
8f#L
16gL
16gJJ
=64
2e
[2f#
=65
4f#]
8r
16GLL
16GJJ
16BLL
16BJ
8gJ
8f#L
8eJ
=66
8B
4B
8B
8BnL
8gJ
8aL
16gL
16gJJ
=67
8r
8f#L
8e
8dJ
16eLL
16eJ
8f#J
8gL
[8f#J
=68
16f#LL]
16e
16e
16eJJ
8c#L
8eJ
8f#L
16eL
16f#JJ
16eLL
16eJ
[8gJ
=69
4g]
8r
16gLL
[16f#JJ
8f#L]
16gL
16eJJ
16eLL
16c#
16c#
[16eJJ
=70
8eL]
16c#L
16c#JJ
16eLL
16f#
16e
16f#JJ
16bLL
16b
16g
16gJJ
16f#LL
16f#
16g
16f#JJ
=71
16eKL
8e'
16eJk
16eLL
16e
16c#
16eJJ
8f#L
8gJ
8aL
16gL
16f#JJ
=72
8r
8e
16c#LL
16e
16e
16eJJ
8eL
8eJ
8dL
16eL
[16f#JJ
=73
4f#]
8r
16GLL
16AJJ
16BLL
16BJ
8gJ
8f#L
8eJ
=74
8B
4B
8B
8BnL
8gJ
8aL
16gL
16gJJ
=75
8r
16f#LL
16f#JJ
16eLL
16e
16f#
16f#JJ
8cc#L
16bL
16bJJ
16gLL
16g
16f#
16eJJ
=76
8f#L
8gJ
8r
16BLL
[16bJJ
8bL]
16aL
[16gJJ
16gLL]
16f#
16f#
[16eJJ
=77
4e]
8r
16c#LL
[16eJJ
8eL]
16c#L
[16eJJ
8eL]
16c#L
[16eJJ
=78
8eL]
16f#L
[16gJJ
8gL]
16cc#L
[16bJJ
8bL]
16gL
[16gJJ
16gLL]
16f#J
8eJ
=79
16r
8eL
16c#Jk
16eKL
8g
[16f#Jk
16f#LL]
16f#J
8f#J
8f#L
16gL
[16aJJ
=80
8aL]
8gJ
8c#L
16eL
16eJJ
8eL
16eL
16dJJ
8dL
16eL
16f#JJ
=81
16r
16BLL
16g
[16f#JJ
16f#LL]
16eJ
8f#J
[2e
=82
4e]
4r
4.g
16eLL
[16f#JJ
=83
4f#]
8r
16r
16B
4.g
16eLL
[16f#JJ
=84
4f#]
8eL
16f#L
[16gJJ
8gL]
8ee
8dd
8bJ
=85
16gLL
16f#J
8eJ
8r
16c#LL
16eJJ
8f#L
8eJ
16f#LL
16bJ
[8gJ
=86
4g]
8r
16gLL
16aJJ
4.b
16cc#LL
[16bJJ
=87
4b]
8gL
8aJ
8bL
8eeJ
8ddL
16bL
[16gJJ
=88
4g]
8r
16eLL
16f#JJ
8gL
8a
8c#
8eJ
=89
4e
8dL
16eL
[16eJJ
2e_
=90
2e]
[2e
=91
2.e]
4r
==
*-
